X:39092
T: Clarence House
C: John Robertson
R: reel
B: RSCDS 39-9(II)
Z: 1997 by John Chambers <jc:trillian.mit.edu>
M: C|
L: 1/8
%--------------------
K: G
|| (3def \
| "G"g2gd BdGd | g2gd "F"cAA2 | "G"g2gd Bdgd | "C"eg"D"fa "G"bgg2 |
| "G"{f}g2ed BdGd | gede "F"cAA2 | "G"{f}g2gB "Am"ceag | "D7"fadf "G"g2 ||
|| ga \
| "G"b2bg "D7"fadf | "G"g2bg "F"=f2z2 | "G"b2bg "D7"fedc | "G"Bg"D7"Af "G"g2df |
| "G"gabg "D7"fedf | "G"gabd' "F"c'a=f2 | "G"g2bg "D7"fadc | "D7"BdAf "G"g2 |]
